X: 16525
T: Half Gate, The
R: jig
M: 6/8
K: Gmajor
|:G3 DGB|dBe dBG|A3 EAB|cAF DFA|
G3 D3|dBe dBG|c3 dcA|1 AGF G2D:|2 AGF GBd||
|:g3 fga|gdB GAB|A2a abg|fd^c dfa|
g3 fga|gdB GAB|c3 dcA|1 AGF GBd:|2 AGF G2D||

